X: 4998
T: Brendan's Boat
R: jig
M: 6/8
K: Dmixolydian
|:(D.A)A ({d}c.A)A|(d.A)A {d}cAF|GAG cGE|~G3 cGE|
DAA {d}cAA|dAA {d}cAF|GAB {d}cGE|DED MD3:|
|:{e}=fed eAA|ded dcA|{e}=fed eAA|cAF {A}G2e|
=f2d eAA|.ded (d.c)A|GAB cGE|DED MD3:|
|:{G}A2A ({_e}d.c)A|({_e}d.c)A ({_e}d.c)A|{F}G2G {d}cGE|.G.A.G {d}cGE|
A2A ({_e}d.c)A|({_e}d.c)A ({_e}d.c)A|GAB ({d}c.G)E|DED MD3:|

